app/dist/common/images/viavi-solutions.svg

<svg height="18" width="18" xmlns="http://www.w3.org/2000/svg"><path d="m0 0h18v18h-18z" fill="#502874"/><path d="m9.969 11.492-2.792-5.385a.218.218 0 0 0 -.181-.107h-2.878c-.108 0-.148.074-.094.168l3.976 7.767c.047.087.14.087.193 0l1.783-2.235a.209.209 0 0 0 -.007-.208zm1.183-5.492a.156.156 0 0 0 -.156.156v2.688c0 .082.066.156.156.156h2.688a.156.156 0 0 0 .156-.156v-2.688a.156.156 0 0 0 -.156-.156z" fill="#fff"/></svg>

<!-- by TradingView --><svg width="18" height="18" xmlns="http://www.w3.org/2000/svg"><path fill="#502874" d="M0 0h18v18H0z"/><path d="M9.969 11.492L7.177 6.107A.218.218 0 006.996 6H4.118c-.108 0-.148.074-.094.168L8 13.935c.047.087.14.087.193 0L9.976 11.7a.209.209 0 00-.007-.208zM11.152 6a.156.156 0 00-.156.156v2.688c0 .082.066.156.156.156h2.688a.156.156 0 00.156-.156V6.156A.156.156 0 0013.84 6h-2.688z" fill="#fff"/></svg>
